files/resources/svgs/general/o-globe-asia-australia.svg

<svg width="24" height="24" viewBox="0 0 24 24" fill="none" xmlns="http://www.w3.org/2000/svg">
<path d="M12.75 3.03081V3.59808C12.75 3.93196 12.8983 4.24858 13.1548 4.46233L14.2234 5.35284C14.6651 5.7209 14.7582 6.36275 14.4393 6.84112L13.9282 7.60766C13.6507 8.02398 13.2423 8.3359 12.7676 8.49413L12.6254 8.54154C11.9327 8.77243 11.6492 9.59877 12.0542 10.2063C12.4237 10.7605 12.2238 11.5131 11.6281 11.811L9 13.125L9.42339 14.1835C9.608 14.645 9.40803 15.171 8.96343 15.3933C8.5503 15.5999 8.04855 15.4814 7.77142 15.1119L7.09217 14.2062C6.59039 13.5372 5.55995 13.6301 5.18594 14.3781L4.5 15.75L3.88804 15.903M12.75 3.03081C12.5027 3.0104 12.2526 3 12 3C7.02944 3 3 7.02944 3 12C3 13.3984 3.31894 14.7223 3.88804 15.903M12.75 3.03081C17.3696 3.41192 21 7.282 21 12C21 13.8792 20.4241 15.6239 19.4391 17.0672M19.4391 17.0672L19.2628 16.5385C18.9566 15.6197 18.0968 15 17.1283 15H16.5L16.1756 14.6756C15.9031 14.4031 15.5335 14.25 15.1481 14.25C14.5977 14.25 14.0945 14.561 13.8484 15.0533L13.8119 15.1263C13.6131 15.5237 13.2567 15.8195 12.8295 15.9416L11.8408 16.2241C11.2906 16.3813 10.9461 16.9263 11.0401 17.4907L11.1131 17.9285C11.1921 18.4026 11.6022 18.75 12.0828 18.75C12.9291 18.75 13.6805 19.2916 13.9482 20.0945L14.1628 20.7384M19.4391 17.0672C18.2095 18.8688 16.3425 20.2007 14.1628 20.7384M14.1628 20.7384C13.47 20.9093 12.7456 21 12 21C8.42785 21 5.34177 18.9189 3.88804 15.903M15.7498 9C15.7498 9.89602 15.3569 10.7003 14.7341 11.25" stroke="#0F172A" stroke-width="1.5" stroke-linecap="round" stroke-linejoin="round"/>
</svg>

<svg xmlns="http://www.w3.org/2000/svg" fill="none" viewBox="0 0 24 24" stroke-width="1.5" stroke="currentColor" aria-hidden="true">
  <path stroke-linecap="round" stroke-linejoin="round" d="M12.75 3.03v.568c0 .334.148.65.405.864l1.068.89c.442.369.535 1.01.216 1.49l-.51.766a2.25 2.25 0 01-1.161.886l-.143.048a1.107 1.107 0 00-.57 1.664c.369.555.169 1.307-.427 1.605L9 13.125l.423 1.059a.956.956 0 01-1.652.928l-.679-.906a1.125 1.125 0 00-1.906.172L4.5 15.75l-.612.153M12.75 3.031a9 9 0 00-8.862 12.872M12.75 3.031a9 9 0 016.69 14.036m0 0l-.177-.529A2.25 2.25 0 0017.128 15H16.5l-.324-.324a1.453 1.453 0 00-2.328.377l-.036.073a1.586 1.586 0 01-.982.816l-.99.282c-.55.157-.894.702-.8 1.267l.073.438c.08.474.49.821.97.821.846 0 1.598.542 1.865 1.345l.215.643m5.276-3.67a9.012 9.012 0 01-5.276 3.67m0 0a9 9 0 01-10.275-4.835M15.75 9c0 .896-.393 1.7-1.016 2.25"/>
</svg>
